X: 8006
T: Connaughtman's Rambles, The
R: jig
M: 6/8
K: Dmajor
AG|:FAA dAA|BAB dAG|FAA dfe|dBA BAG|
FAA dAA|BAB def|gfe f2e|1 dBA BAG:|2 dBA B2g||
fbb faa|fef deg|fbb faa|fed e2g|
fbb faa|fef def|gfe f2e|dBA B2g|
fbb faa|fef deg|fbb faa|fed e3|
~b3 ~a3|fef def|afe f2e|dBA BAG||

